X:0715
M:2/4
L:1/8
Q:1/4=80
P:ABCA
K:G
P:A
ggdd|B3 d| GGAA|(B/A/B/c/) (B/A/B/c/)|gg`````d```d    |B3         d    |GG`AF|G2G2:|
P:B
ddBB|ccA2| ddBB|(d/c/B/c/)  A2       |Bd/B/ (A/B/c/A/)|Bd/B/ (A/B/c/A/)|GG`AF|G2G2:|
P:C
K:G Minor
"^Minore"\

